src/22/panel/weather-few-clouds-night.svg

<svg xmlns="http://www.w3.org/2000/svg" width="22" height="22" version="1.1">
 <defs>
  <style id="current-color-scheme" type="text/css">
   .ColorScheme-Text { color:#dfdfdf; } .ColorScheme-Highlight { color:#5294e2; }
  </style>
 </defs>
 <g transform="translate(-177,-681.28999)">
  <path style="fill:currentColor" class="ColorScheme-Text" d="M 10.751953 4.0371094 C 7.9891731 4.1385494 5.4432531 5.8416894 4.4394531 8.5996094 C 3.1756231 12.071949 4.8081231 15.924179 8.1269531 17.412109 C 8.0337531 17.074649 7.9800731 16.705189 8.0019531 16.349609 C 8.0296531 15.348359 8.5859231 14.462239 9.3769531 13.880859 C 7.8100731 12.147669 7.2413631 9.6343994 8.0957031 7.2871094 C 8.6098631 5.8744594 9.5701431 4.7787494 10.751953 4.0371094 z M 14.001953 12.005859 C 12.690273 12.005859 11.597133 12.864289 11.189453 14.037109 C 9.9586231 14.193079 9.0019531 15.232679 9.0019531 16.505859 C 9.0019531 17.886569 10.121243 19.005859 11.501953 19.005859 L 17.001953 19.005859 C 18.106523 19.005859 19.001953 18.110429 19.001953 17.005859 C 19.001953 15.901289 18.106523 15.005859 17.001953 15.005859 C 17.001953 13.349009 15.658803 12.005859 14.001953 12.005859 z" transform="translate(177,681.28999)"/>
 </g>
</svg>

<svg xmlns="http://www.w3.org/2000/svg" width="22" height="22"><defs><style id="current-color-scheme" type="text/css"></style></defs><path d="M10.752 4.037C7.989 4.14 5.443 5.842 4.439 8.6c-1.263 3.472.37 7.324 3.688 8.812a3.3 3.3 0 0 1-.125-1.062c.028-1.002.584-1.888 1.375-2.47a6.497 6.497 0 0 1-1.281-6.593c.514-1.413 1.474-2.508 2.656-3.25zm3.25 7.969c-1.312 0-2.405.858-2.813 2.031a2.494 2.494 0 0 0 .313 4.969h5.5a2 2 0 1 0 0-4 3 3 0 0 0-3-3z" fill="currentColor" color="#dfdfdf"/></svg>
